64x64/apps/calligrakexi.svg

<svg xmlns="http://www.w3.org/2000/svg" width="64" height="64" version="1">
 <path style="opacity:0.2" d="m 4,56 0,2 c 0,1.662 1.338,3 3,3 l 50,0 c 1.662,0 3,-1.338 3,-3 l 0,-2 c 0,1.662 -1.338,3 -3,3 L 7,59 C 5.338,59 4,57.662 4,56 Z"/>
 <rect style="fill:#4ba357" width="56" height="56" x="4" y="4" rx="3" ry="3"/>
 <path style="opacity:0.1;fill:#f4f4f7" d="M 7 4 C 5.338 4 4 5.338 4 7 L 4 8 C 4 6.338 5.338 5 7 5 L 57 5 C 58.662 5 60 6.338 60 8 L 60 7 C 60 5.338 58.662 4 57 4 L 7 4 z"/>
 <path style="opacity:0.1" d="M 32.003906,21 32,21.003906 c -4.1948,0 -7.778872,1.553442 -9.263672,3.75 -0.12464,0.184409 -0.234065,0.371452 -0.328125,0.564453 -0.0894,0.183419 -0.166382,0.36836 -0.226562,0.558594 a 10,5.997852 0 0 0 -0.04297,0.175781 c -0.03428,0.128922 -0.07144,0.259094 -0.0918,0.390625 A 10,5.997852 0 0 0 22,27.001953 c 5.5e-4,0.19489 0.01874,0.388783 0.05078,0.582031 a 10,5.997852 0 0 0 0.136719,0.5625 10,5.997852 0 0 0 0.230469,0.560547 10,5.997852 0 0 0 0.318359,0.544922 A 10,5.997852 0 0 0 32,33 a 10,5.997852 0 0 0 9.263672,-3.748047 10,5.997852 0 0 0 0.002,-0.0059 10,5.997852 0 0 0 0.271484,-0.462891 c 0.0158,-0.03041 0.03572,-0.06128 0.05078,-0.0918 a 10,5.997852 0 0 0 0.164062,-0.398437 c 0.02332,-0.06275 0.05233,-0.124344 0.07227,-0.1875 a 10,5.997852 0 0 0 0.08203,-0.333985 c 0.0192,-0.08794 0.03997,-0.173259 0.05273,-0.261718 A 10,5.997852 0 0 0 42,27.001953 10,5.997852 0 0 0 41.947266,26.404297 C 41.855266,25.819514 41.617578,25.267309 41.267578,24.75 39.781578,22.552565 36.197906,21 32.003906,21 Z M 22.736328,32 A 10,5.09051 0 0 0 22,33.910156 10,5.09051 0 0 0 32,39 10,5.09051 0 0 0 42,33.908203 10,5.09051 0 0 0 41.263672,32 10,5.09051 0 0 1 32,35.181641 10,5.09051 0 0 1 22.736328,32 Z m 0,6 A 10,5.09051 0 0 0 22,39.908203 10,5.09051 0 0 0 32,45 10,5.09051 0 0 0 42,39.910156 10,5.09051 0 0 0 41.263672,38 10,5.09051 0 0 1 32,41.183594 10,5.09051 0 0 1 22.736328,38 Z"/>
 <path style="fill:#f4f4f7" d="M 32.003906,20 32,20.003906 c -4.1948,0 -7.778872,1.553442 -9.263672,3.75 -0.12464,0.184409 -0.234065,0.371452 -0.328125,0.564453 -0.0894,0.183419 -0.166382,0.36836 -0.226562,0.558594 a 10,5.997852 0 0 0 -0.04297,0.175781 c -0.03428,0.128922 -0.07144,0.259094 -0.0918,0.390625 A 10,5.997852 0 0 0 22,26.001953 c 5.5e-4,0.19489 0.01874,0.388783 0.05078,0.582031 a 10,5.997852 0 0 0 0.136719,0.5625 10,5.997852 0 0 0 0.230469,0.560547 10,5.997852 0 0 0 0.318359,0.544922 A 10,5.997852 0 0 0 32,32 a 10,5.997852 0 0 0 9.263672,-3.748047 10,5.997852 0 0 0 0.002,-0.0059 10,5.997852 0 0 0 0.271484,-0.462891 c 0.0158,-0.03041 0.03572,-0.06128 0.05078,-0.0918 a 10,5.997852 0 0 0 0.164062,-0.398437 c 0.02332,-0.06275 0.05233,-0.124344 0.07227,-0.1875 a 10,5.997852 0 0 0 0.08203,-0.333985 c 0.0192,-0.08794 0.03997,-0.173259 0.05273,-0.261718 A 10,5.997852 0 0 0 42,26.001953 10,5.997852 0 0 0 41.947266,25.404297 C 41.855266,24.819514 41.617578,24.267309 41.267578,23.75 39.781578,21.552565 36.197906,20 32.003906,20 Z M 22.736328,31 A 10,5.09051 0 0 0 22,32.910156 10,5.09051 0 0 0 32,38 10,5.09051 0 0 0 42,32.908203 10,5.09051 0 0 0 41.263672,31 10,5.09051 0 0 1 32,34.181641 10,5.09051 0 0 1 22.736328,31 Z m 0,6 A 10,5.09051 0 0 0 22,38.908203 10,5.09051 0 0 0 32,44 10,5.09051 0 0 0 42,38.910156 10,5.09051 0 0 0 41.263672,37 10,5.09051 0 0 1 32,40.183594 10,5.09051 0 0 1 22.736328,37 Z"/>
</svg>

<svg xmlns="http://www.w3.org/2000/svg" width="64" height="64" version="1"><path style="opacity:.2" d="M4 56v2c0 1.662 1.338 3 3 3h50c1.662 0 3-1.338 3-3v-2c0 1.662-1.338 3-3 3H7c-1.662 0-3-1.338-3-3z"/><rect style="fill:#4ba357" width="56" height="56" x="4" y="4" rx="3" ry="3"/><path style="opacity:.1;fill:#f4f4f7" d="M7 4C5.338 4 4 5.338 4 7v1c0-1.662 1.338-3 3-3h50c1.662 0 3 1.338 3 3V7c0-1.662-1.338-3-3-3H7z"/><path style="opacity:.1" d="m32.004 21-.004.004c-4.195 0-7.779 1.553-9.264 3.75a4.625 4.625 0 0 0-.328.564c-.09.184-.166.369-.226.559a10 5.998 0 0 0-.043.176c-.035.129-.072.259-.092.39a10 5.998 0 0 0-.047.559c0 .195.019.389.05.582a10 5.998 0 0 0 .137.562 10 5.998 0 0 0 .231.561 10 5.998 0 0 0 .318.545A10 5.998 0 0 0 32 33a10 5.998 0 0 0 9.264-3.748 10 5.998 0 0 0 .002-.006 10 5.998 0 0 0 .271-.463c.016-.03.036-.061.05-.092a10 5.998 0 0 0 .165-.398c.023-.063.052-.124.072-.188a10 5.998 0 0 0 .082-.334c.02-.087.04-.173.053-.261a10 5.998 0 0 0 .041-.508 10 5.998 0 0 0-.053-.598c-.092-.584-.33-1.137-.68-1.654-1.485-2.197-5.07-3.75-9.263-3.75zm-9.268 11A10 5.09 0 0 0 22 33.91 10 5.09 0 0 0 32 39a10 5.09 0 0 0 10-5.092A10 5.09 0 0 0 41.264 32 10 5.09 0 0 1 32 35.182 10 5.09 0 0 1 22.736 32zm0 6A10 5.09 0 0 0 22 39.908 10 5.09 0 0 0 32 45a10 5.09 0 0 0 10-5.09 10 5.09 0 0 0-.736-1.91A10 5.09 0 0 1 32 41.184 10 5.09 0 0 1 22.736 38z"/><path style="fill:#f4f4f7" d="m32.004 20-.004.004c-4.195 0-7.779 1.553-9.264 3.75a4.625 4.625 0 0 0-.328.564c-.09.184-.166.369-.226.559a10 5.998 0 0 0-.043.176c-.035.129-.072.259-.092.39a10 5.998 0 0 0-.047.559c0 .195.019.389.05.582a10 5.998 0 0 0 .137.562 10 5.998 0 0 0 .231.561 10 5.998 0 0 0 .318.545A10 5.998 0 0 0 32 32a10 5.998 0 0 0 9.264-3.748 10 5.998 0 0 0 .002-.006 10 5.998 0 0 0 .271-.463c.016-.03.036-.061.05-.092a10 5.998 0 0 0 .165-.398c.023-.063.052-.124.072-.188a10 5.998 0 0 0 .082-.334c.02-.087.04-.173.053-.261a10 5.998 0 0 0 .041-.508 10 5.998 0 0 0-.053-.598c-.092-.584-.33-1.137-.68-1.654-1.485-2.197-5.07-3.75-9.263-3.75zm-9.268 11A10 5.09 0 0 0 22 32.91 10 5.09 0 0 0 32 38a10 5.09 0 0 0 10-5.092A10 5.09 0 0 0 41.264 31 10 5.09 0 0 1 32 34.182 10 5.09 0 0 1 22.736 31zm0 6A10 5.09 0 0 0 22 38.908 10 5.09 0 0 0 32 44a10 5.09 0 0 0 10-5.09 10 5.09 0 0 0-.736-1.91A10 5.09 0 0 1 32 40.184 10 5.09 0 0 1 22.736 37z"/></svg>
